X:1
T:Title
%%score { ( 1 4 ) | ( 2 3 ) }
L:1/8
M:6/8
K:Ab
V:1 treble nm="Grand Piano"
V:4 treble 
V:2 bass 
V:3 bass 
V:1
 z3 z2[Q:1/4=100] [Ec] | [Ec]2 [CE] [CE]2 [DF] | [DF]2 [CE] [CE]2 [CEA] | G2 A B2 F | %4
[M:5/8] [DF]3 [CE]2 |[M:1/8] [Ec] |[M:3/4] [Ec]2 [CE] [CE]2 [E_G] | [E_G]2 F F2 F | E2 AG A[DEB] | %9
 [CEA]6 | [Ec]2 [=D_c] [E=c]2 [A,EA] | [FB]<[FB] [FA] F2 E | A2 A[=DB] [Dc][DB] |[M:5/8] B-B- B3 | %14
[M:1/8] B |[M:3/4] c2 d e2 [EAc] | [FB]<[FB] [FA] [DF]2 [Fd] | c2 AG AB | %18
[M:5/8] [CA]-[CA]- [CA]3 |] %19
V:2
 z3 z2 [A,,A,] | [A,,A,]2 [A,,A,] [A,,A,]2 [A,,A,] | [A,,A,]2 [A,,A,] [A,,A,]2 A,, | %3
 [E,B,D]2 [E,A,C] [E,G,D]2 [E,G,D] |[M:5/8] [A,,A,]-[A,,A,]- [A,,A,]3 |[M:1/8] [A,,A,] | %6
[M:3/4] [A,,A,]2 [A,,A,] [A,,A,]2 [C,A,] | [D,A,]2 [D,A,D] [D,A,D]2 [=D,A,_C] | z2 z .[E,E]3 | %9
 A,,6 | A,2 A, A,2 C, | [D,A,]<[D,A,] [D,A,] [D,A,D]2 [C,A,] | %12
 [F,A,C]2 [F,A,C][B,,F,] [B,,F,][B,,A,] |[M:5/8] [E,G,E]2 [E,G,] [E,G,]2 |[M:1/8] [E,G,E] | %15
[M:3/4][K:treble] [A,E]2 [A,B,E] [A,CA]2[K:bass] A,, | [D,D]<[D,D] [D,D] [D,A,]2 [D,A,] | %17
 [E,A,E]2 [E,C][E,B,] [E,C][E,G,D] |[M:5/8] [A,,A,]-[A,,A,]- [A,,A,]3 |] %19
V:3
 x6 | x6 | x6 | x6 |[M:5/8] x5 |[M:1/8] x |[M:3/4] x6 | x6 | [E,A,C]2 [E,CE]B, CD, | x6 | x6 | x6 | %12
 x6 |[M:5/8] x5 |[M:1/8] x |[M:3/4][K:treble] x5[K:bass] x | x6 | x6 |[M:5/8] x5 |] %19
V:4
 x6 | x6 | x6 | x6 |[M:5/8] x5 |[M:1/8] x |[M:3/4] x6 | x6 | x6 | x6 | x6 | x6 | x6 | %13
[M:5/8] z2 E E2 |[M:1/8] x |[M:3/4] x6 | x6 | x6 |[M:5/8] x5 |] %19

